X: 22902
T: Larkin's Beehive
R: reel
M: 4/4
K: Gmajor
|:Bd~d2 edge|d2BG AGEG|Bd~d2 edge|dBAd BG~G2|
BA (3Bcd edge|d2BG AG (3EFG|GAAG ABGB|dBAd BG~G2:|
|:Bd~d2 eg~g2|e2ae gedB|GBdB eBdB|A2BG AG (3EFG|
BA (3Bcd eg~g2|e2ae gedc|BG~G2 ABGB|dBAd BG~G2:|

